!!!OTL: HOLD UND SITTSAMKEIT
!!!ARE: Europa, Mitteleuropa, Deutschland, Sundgau
!!!SCT: E0622
!!!YEM: Copyright 1995, estate of Helmut Schaffrath.
**kern
*ICvox
*Ivox
*M2/4
*k[f#]
*G:
=1
{4.g
8a
=2
4g
8a
8b
=3
4.b
8r}
=4
{4b
8dd
8dd
=5
8.dd
16cc
8.cc
16b
=6
4b
4r}
=7
{8g
8b
4b
=8
8b
8dd
4dd
=9
4dd
8b
8r
=10
4dd
8b
8r}
=11
{8a
8cc
8ee
8dd
=12
4cc
8.a
16b
=13
4.b
8r}
=14
{8g
8b
4b
=15
8b
8dd
4dd
=16
4dd
8b
8r
=17
4dd
8b
8r}
=18
{8a
8cc
8ee
8dd
=19
4cc
8.a
16b
=20
4.b
8r}
==
!!!AGN: Liebes - Lied
!!!ONB: ESAC (Essen Associative Code) Database: ERK2
!!!AMT: simple duple
!!!AIN: vox
!!!EED: Helmut Schaffrath
!!!EEV: 1.0
*-
